X: 23804
T: Little Johnnie's Hame
R: strathspey
M: 4/4
K: Dmajor
D2A,>D F<DA>D|d2c>d B>dA>D|E2B,>E G<Eg>f|(3efd (3cdB (3ABG (3FGE|
D2A,>D F>DA>D|d2c>d B>dA>F|G>B (3efg (3fed a>A|1 (3Adf a>A d4:|2 (3Adf a>A d3g||
|:f2d>f (3Adf a>g|f>dA<d F>AD>d|g2e>g (3Beg b>a|(3gab (3efg (3cde (3Aag|
f2d>f (3Adf a>g|f>dA<d F>AD>F|G>B (3efg (3fed (3afd|1 (3AFD A,>C D3g:|2 (3AFD A,>C D3D||

